site/static/helsinki-fi.svg

<?xml version="1.0" encoding="UTF-8"?>
<svg width="78px" height="36px" viewBox="0 0 78 36" version="1.1" 
    xmlns="http://www.w3.org/2000/svg" 
    xmlns:xlink="http://www.w3.org/1999/xlink">
    <g stroke="none" stroke-width="1">
        <path d="M75.7533469,2.25098382 L75.7533469,22.9505903 C75.7533469,26.9016178 72.4782961,30.1285527 68.4438134,30.1285527 L46.1829615,30.1285527 C43.5091278,30.1285527 40.9776876,31.0887626 39,32.867512 C37.0223124,31.1045037 34.4908722,30.1285527 31.8170385,30.1285527 L9.50872211,30.1285527 C5.50588235,30.1285527 2.26247465,26.917359 2.26247465,22.9505903 L2.26247465,2.25098382 L75.7533469,2.25098382 Z M40.1866126,34.8351552 C41.7845842,33.2452995 43.9204868,32.3637954 46.198783,32.3637954 L68.4438134,32.3637954 C73.7123732,32.3637954 78,28.1451683 78,22.9505903 L78,0 L0,0 L0,22.9348491 C0,28.1294272 4.25598377,32.3480542 9.50872211,32.3480542 L31.8170385,32.3480542 C34.0795132,32.3480542 36.2154158,33.2295584 37.8292089,34.8194141 L39.0158215,36 L40.1866126,34.8351552 Z"></path>
        <path d="M67.5223881,11.6756977 C67.5223881,12.3574665 66.9661837,12.8532983 66.2669554,12.8532983 C65.5677271,12.8532983 65.0115227,12.3574665 65.0115227,11.6756977 C65.0115227,10.993929 65.5677271,10.4980971 66.2669554,10.4980971 C66.9661837,10.4671076 67.5223881,10.9629395 67.5223881,11.6756977 L67.5223881,11.6756977 Z M65.1704383,21.297934 L67.347581,21.297934 L67.347581,13.7519935 L65.1704383,13.7519935 L65.1704383,21.297934 Z M61.2611163,16.7424792 L64.1057042,21.297934 L61.7378629,21.297934 L59.8308766,18.2764589 L58.7979257,19.5470279 L58.7979257,21.297934 L56.6366745,21.297934 L56.6366745,10.4516129 L58.7979257,10.4516129 L58.7979257,15.4564154 C58.7979257,16.3861 58.6866848,17.3157847 58.6866848,17.3157847 L58.7343594,17.3157847 C58.7343594,17.3157847 59.2428891,16.4945632 59.6719611,15.905763 L61.3246825,13.7519935 L63.867331,13.7519935 L61.2611163,16.7424792 Z M54.4436402,16.4635738 C54.4436402,14.5887097 53.5060386,13.5660565 52.0122327,13.5660565 C50.7409085,13.5660565 50.0734632,14.2943095 49.692066,14.991573 L49.6443913,14.991573 L49.7556322,13.7519935 L47.594381,13.7519935 L47.594381,21.297934 L49.7556322,21.297934 L49.7556322,16.8199529 C49.7556322,15.9522472 50.2800534,15.3479522 51.0905226,15.3479522 C51.9009918,15.3479522 52.250606,15.8747735 52.250606,16.8819319 L52.250606,21.297934 L54.4277487,21.297934 L54.4436402,16.4635738 L54.4436402,16.4635738 Z M45.5125876,11.6756977 C45.5125876,12.3574665 44.9563833,12.8532983 44.257155,12.8532983 C43.5579267,12.8532983 43.0017223,12.3574665 43.0017223,11.6756977 C43.0017223,10.993929 43.5579267,10.4980971 44.257155,10.4980971 C44.9722748,10.4671076 45.5125876,10.9629395 45.5125876,11.6756977 L45.5125876,11.6756977 Z M43.1606378,21.297934 L45.3377806,21.297934 L45.3377806,13.7519935 L43.1606378,13.7519935 L43.1606378,21.297934 Z M39.4102314,19.1906488 C39.4102314,18.5863538 38.5520876,18.4623958 37.5509198,18.1834904 C36.3908364,17.8890903 34.9288136,17.3157847 34.9288136,15.8747735 C34.9288136,14.449257 36.3272702,13.5505618 37.9799917,13.5505618 C39.5214723,13.5505618 40.9358205,14.26332 41.5238079,15.2704784 L39.6644963,16.2931316 C39.4737976,15.6268576 38.9017017,15.1000362 38.0435579,15.1000362 C37.4873536,15.1000362 37.0264985,15.3324574 37.0264985,15.781805 C37.0264985,16.3551105 38.0435579,16.4170895 39.1877497,16.7734686 C40.3955077,17.1453425 41.5079164,17.6876586 41.5079164,19.0666908 C41.5079164,20.5851758 40.0617851,21.483871 38.3931721,21.483871 C36.581535,21.483871 35.1512953,20.7401232 34.5156332,19.5315332 L36.406728,18.4933853 C36.6451013,19.3146067 37.328438,19.9343965 38.3613889,19.9343965 C38.9811595,19.9343965 39.4102314,19.6864806 39.4102314,19.1906488 L39.4102314,19.1906488 Z M32.5291891,10.5135919 L30.3520464,10.5135919 L30.3520464,19.2061435 C30.3520464,19.9808808 30.5268535,20.5541863 30.8605761,20.9105654 C31.2101903,21.2669445 31.750503,21.4373867 32.497406,21.4373867 C32.7516709,21.4373867 33.0218273,21.4063972 33.2760921,21.359913 C33.5462485,21.297934 33.7528387,21.2204603 33.9276458,21.1274918 L34.1183444,19.7019754 C33.9435373,19.7639543 33.8005133,19.8104386 33.6574894,19.8259333 C33.5303569,19.8569228 33.3714414,19.8569228 33.1966343,19.8569228 C32.9105864,19.8569228 32.783454,19.7794491 32.6881046,19.6399964 C32.5768638,19.5005437 32.5291891,19.2526278 32.5291891,18.8962486 L32.5291891,10.5135919 Z M25.2826411,15.0845415 C24.4880635,15.0845415 23.8365098,15.6423523 23.6617027,16.6650054 L26.7128809,16.6650054 C26.7287724,15.7663103 26.1248934,15.0845415 25.2826411,15.0845415 L25.2826411,15.0845415 Z M28.6357587,18.0905219 L23.6299196,18.0905219 C23.725269,19.3146067 24.4244973,19.9189018 25.3303158,19.9189018 C26.140785,19.9189018 26.6969893,19.3920805 26.8241217,18.6793222 L28.6516503,19.6864806 C28.1113375,20.6471548 26.9512541,21.483871 25.3303158,21.483871 C23.1690646,21.483871 21.5799093,20.0118702 21.5799093,17.5327111 C21.5799093,15.0690468 23.2008477,13.5815513 25.2826411,13.5815513 C27.3644345,13.5815513 28.7469996,15.0225625 28.7469996,17.0678688 C28.731108,17.6721638 28.6357587,18.0905219 28.6357587,18.0905219 L28.6357587,18.0905219 Z M17.5593465,21.297934 L19.815947,21.297934 L19.815947,10.9164552 L17.5593465,10.9164552 L17.5593465,15.0225625 L13.316302,15.0225625 L13.316302,10.93195 L11.0597015,10.93195 L11.0597015,21.297934 L13.316302,21.297934 L13.316302,17.0058898 L17.5593465,17.0058898 L17.5593465,21.297934 L17.5593465,21.297934 Z"></path>
    </g>
</svg>

<?xml version="1.0" encoding="UTF-8"?>
<svg version="1.1" viewBox="0 0 78 36" xmlns="http://www.w3.org/2000/svg">
<g>
<path d="m75.753 2.251v20.7c0 3.951-3.2751 7.178-7.3095 7.178h-22.261c-2.6738 0-5.2053 0.96021-7.183 2.739-1.9777-1.763-4.5091-2.739-7.183-2.739h-22.308c-4.0028 0-7.2462-3.2112-7.2462-7.178v-20.7h73.491zm-35.567 32.584c1.598-1.5899 3.7339-2.4714 6.0122-2.4714h22.245c5.2686 0 9.5562-4.2186 9.5562-9.4132v-22.951h-78v22.935c0 5.1946 4.256 9.4132 9.5087 9.4132h22.308c2.2625 0 4.3984 0.8815 6.0122 2.4714l1.1866 1.1806 1.1708-1.1648z"/>
<path d="m67.522 11.676c0 0.68177-0.5562 1.1776-1.2554 1.1776s-1.2554-0.49583-1.2554-1.1776c0-0.68177 0.5562-1.1776 1.2554-1.1776 0.69923-0.03099 1.2554 0.46484 1.2554 1.1776zm-2.3519 9.6222h2.1771v-7.5459h-2.1771v7.5459zm-3.9093-4.5555 2.8446 4.5555h-2.3678l-1.907-3.0215-1.033 1.2706v1.7509h-2.1613v-10.846h2.1613v5.0048c0 0.92968-0.11124 1.8594-0.11124 1.8594h0.047675s0.50853-0.82122 0.9376-1.41l1.6527-2.1538h2.5426l-2.6062 2.9905zm-6.8175-0.27891c0-1.8749-0.9376-2.8975-2.4314-2.8975-1.2713 0-1.9388 0.72825-2.3202 1.4255h-0.047675l0.11124-1.2396h-2.1613v7.5459h2.1613v-4.478c0-0.86771 0.52442-1.472 1.3349-1.472s1.1601 0.52682 1.1601 1.534v4.416h2.1771l0.015892-4.8344zm-8.9311-4.7879c0 0.68177-0.5562 1.1776-1.2554 1.1776s-1.2554-0.49583-1.2554-1.1776c0-0.68177 0.5562-1.1776 1.2554-1.1776 0.71512-0.03099 1.2554 0.46484 1.2554 1.1776zm-2.3519 9.6222h2.1771v-7.5459h-2.1771v7.5459zm-3.7504-2.1073c0-0.6043-0.85814-0.72825-1.8593-1.0072-1.1601-0.2944-2.6221-0.86771-2.6221-2.3087 0-1.4255 1.3985-2.3242 3.0512-2.3242 1.5415 0 2.9558 0.71276 3.5438 1.7199l-1.8593 1.0227c-0.1907-0.66627-0.76279-1.1931-1.6209-1.1931-0.5562 0-1.0171 0.23242-1.0171 0.68177 0 0.57331 1.0171 0.63528 2.1613 0.99166 1.2078 0.37187 2.3202 0.91419 2.3202 2.2932 0 1.5185-1.4461 2.4172-3.1147 2.4172-1.8116 0-3.2419-0.74375-3.8775-1.9523l1.8911-1.0381c0.23837 0.82122 0.92171 1.441 1.9547 1.441 0.61977 0 1.0488-0.24792 1.0488-0.74375zm-6.881-8.6771h-2.1771v8.6926c0 0.77474 0.17481 1.348 0.50853 1.7044 0.34961 0.35638 0.88993 0.52682 1.6368 0.52682 0.25426 0 0.52442-0.03099 0.77869-0.077474 0.27016-0.061979 0.47675-0.13945 0.65155-0.23242l0.1907-1.4255c-0.17481 0.061979-0.31783 0.10846-0.46086 0.12396-0.12713 0.03099-0.28605 0.03099-0.46086 0.03099-0.28605 0-0.41318-0.077474-0.50853-0.21693-0.11124-0.13945-0.15892-0.38737-0.15892-0.74375v-8.3827zm-7.2465 4.5709c-0.79458 0-1.4461 0.55781-1.6209 1.5805h3.0512c0.015892-0.8987-0.58799-1.5805-1.4302-1.5805zm3.3531 3.006h-5.0058c0.095349 1.2241 0.79458 1.8284 1.7004 1.8284 0.81047 0 1.3667-0.52682 1.4938-1.2396l1.8275 1.0072c-0.54031 0.96067-1.7004 1.7974-3.3213 1.7974-2.1613 0-3.7504-1.472-3.7504-3.9512 0-2.4637 1.6209-3.9512 3.7027-3.9512s3.4644 1.441 3.4644 3.4863c-0.015892 0.6043-0.11124 1.0227-0.11124 1.0227zm-11.076 3.2074h2.2566v-10.381h-2.2566v4.1061h-4.243v-4.0906h-2.2566v10.366h2.2566v-4.292h4.243v4.292z"/>
</g>
</svg>
